!!!COM: Hugo Wolf
!!!CNT: Deutscher
!!!TXO: Deutsche 
!!!OTL: Trunken Mu2ssen Wir Alle Sein!
!!!ODT: 1889/01/18
!!!ONM: No. 35
!!!LYR: Johann Wolfgang von Goethe
!!!ENC: Brian Bice
!!!YOR: 45 Songs on Poems of Goethe and Eichendorff, Dover Publications, 1995
!!NB: Vocal melody and text only encoded.
**kern	**silbe
*clefG2	*
*k[f#c#g#]	*
*M6/8	*
=1	=1
4r	.
8r	.
{[4.ff#	{Trun-
=2	=2
4ff#]	|
8ff#	-ken
[4.ff#	mu2s-
=3	=3
8ff#]	|
8ee	-sen
8dd	wir
[4.cc#	al-
=4	=4
4cc#]	|
(ee#q	-le
8dd#)	|
4.cc#}	sein!}
=5	=5
4r	.
8r	.
{[4.cc#	{Ju-
=6	=6
8cc#]	|
8cc#	-gend
8cc#	ist
[4.cc#	Trun-
=7	=7
4cc#]	|
8ff#	-ken-
[4.ffn	-heit
=8	=8
4.ffn_	|
8ffn]	|
8dd	oh-
8ee	-ne
=9	=9
[2.ee	Wein;
=10	=10
4.ee]}	|}
4r	.
8r	.
=13	=13
{(4cc#	{trinkt
8dd)	|
4cc#	sich
8dd	das
=14	=14
4.cc#	Al-
4.g#	-ter
=15	=15
(4dd	wie-
8cc#)	|
4b	-der
8a	zu
=16	=16
(4g	Ju-
8cc#)	|
4.cc#}	-gend,}
=17	=17
{4.dd	{so
4dd	ist
8dd	es
=18	=18
[2.dd	wun-
=19	=19
4dd]	|
8ffn	-der-
4ee	-vol-
8ee	-le
=20	=20
4.ee	Tu-
4aa}	-gend,}
8r	.
=21	=21
4r	.
8r	.
4r	.
{8ee	{Fu2r
=22	=22
4ee	Sor-
8dd	-gen
4cc#	sorgt
8b	das
=23	=23
(4a#	lie-
8b)	|
(4cc#	-be
8ee)	|
=24	=24
4.dd	Le-
4cc#}	-ben,}
{8f#	{und
=25	=25
4.dd	Sor-
4.dd	-gen-
=26	=26
4.dd	-bre-
[4.ff#	-cher
=27	=27
4.ff#]	|
(ff#q	sind
8ee#	|
8dd#)	|
8ee#	die
=28	=28
[2.ff#	Re-
=29	=29
4.ff#]	|
4.f#}	-ben.}
=34	=34
*M2/4	*
4r	.
{[4cc#	{Da
=35	=35
8cc#]	|
8cc#	wird
8cc#	nicht
8ccn	mehr
=36	=36
8.b	nach-
16ee	ge-
4ee}	-fragt!}
=37	=37
4r	.
{[4dd	{Wein
=38	=38
8dd]	|
8ff#	ist
[4b	ernst
=39	=39
8b]	|
8a	|
8g#	-lich
8f#	|
=40	=40
8e#	un-
8g#	-ter-
4cc#}	-sagt.}
=42	=42
{4b	{Soll
4b	denn
=43	=43
4.b	doch
8cc#	ge-
=44	=44
4dd	-trun-
4ff#	-ken
=45	=45
4.b}	sein,}
8r	.
=46	=46
{4ee#	{trin-
4ee#	-ke
=47	=47
4ee#	nur
4ee#	vom
=48	=48
4ee#	be-
12dd#	-sten
12ee#	|
12dd#	|
=49	=49
[2cc#	Wein!
=50	=50
2cc#_	|
=51	=51
2cc#_	|
=52	=52
8cc#]}	|}
8r	.
4r	.
=54	=54
{4dd	{Dop-
4dd	-pelt
=55	=55
4.dd	wa2-
8dd	-rest
=56	=56
4dd	du
4ff#	ein
=57	=57
4ee#	Ket-
4cc#}	-zer}
=58	=58
{4b	{in
4b	Ver-
=59	=59
4.dd	-damm-
8dd	-nis
=60	=60
4dd	um
4ff#	den
=61	=61
[2ee#	Kra2t-
=62	=62
2ee#_	|
=62	=63
(4.ee#]	|
8cc#)	|
=64	=64
4cc#}	-zer.}
4r	.
=67	=67
*M6/8	*
4r	.
8r	.
{[4.ff#	{Trun-
=68	=68
4ff#]	|
8ff#	-ken
[4.ff#	mu2s-
=69	=69
8ff#]	|
8ee	-sen
8dd#	wir
[4.cc#	al-
=70	=70
4cc#]	|
(ee#q	-le
8dd#)	|
4.cc#}	sein,}
=71	=71
4r	.
8r	.
{[4.ff#	{trun
=72	=72
4ff#]	|
8f#}	-ken!}
4r	.
8r	.
=73	=73
4r	.
8r	.
{[4.ff#	{trun-
=74	=74
2.ff#_	|
=75	=75
2.ff#_	|
=76	=76
4.ff#_	|
(4ff#]	|
8f#)	|
=77	=77
4.f#}	-ken!}
4r	.
8r	.
*-	*-
